svg/volume.svg

<svg xmlns="http://www.w3.org/2000/svg" viewBox="0 0 30 62" enable-background="new 0 0 30 62"><style type="text/css">.st0{fill:#343434;}</style><title>volume</title><desc>Created with Sketch.</desc><path class="st0" d="M27 1.1l-16.7 17.9h-8.3c-1.1 0-2 .9-2 2v20c0 1.1.9 2 2 2h8.4l16.6 17.7c1.1 1.2 2.1.9 2.1-.8v-58c0-1.6-.9-2-2.1-.8zm-3.9 46.6l-10.1-10.7h-7v-12h6.9l10.2-10.9v33.6z"/></svg>

<?xml version="1.0" encoding="utf-8"?>
<!-- Generator: Adobe Illustrator 21.0.0, SVG Export Plug-In . SVG Version: 6.00 Build 0)  -->
<svg version="1.1" id="Layer_1" xmlns="http://www.w3.org/2000/svg" xmlns:xlink="http://www.w3.org/1999/xlink" x="0px" y="0px"
	 viewBox="0 0 30 62" style="enable-background:new 0 0 30 62;" xml:space="preserve">
<style type="text/css">
	.st0{fill:#343434;}
</style>
<title>volume</title>
<desc>Created with Sketch.</desc>
<path class="st0" d="M27,1.1L10.3,19H2c-1.1,0-2,0.9-2,2v20c0,1.1,0.9,2,2,2h8.4L27,60.7c1.1,1.2,2.1,0.9,2.1-0.8v-58
	C29.1,0.3,28.2-0.1,27,1.1z M23.1,47.7L13,37H6V25h6.9l10.2-10.9V47.7z"/>
</svg>
